X:1
T:Title
%%score { 1 | 2 }
L:1/8
M:4/4
K:C
V:1 treble nm="Grand Piano"
V:2 bass 
V:1
 z4 z2[Q:1/4=100] E2 | D2 E2 F2 [B,D]2 | [CE]6 [DG]2 | [EA]2 [DB]2 [Cc]2 [DA]2 | [DB]6 [DB]2 | %5
 [Cc]2 [CEG]2 [CFA]2 [^CGA]2 | [DFd]2 [D^FA]2 [DGB]2 [B,DG]2 | [CGc]2 [EG]2 [EGA]2 [DFB]2 | %8
[M:7/4] [CEc]6 z2 z2 z4 |[M:4/4] [Fc]8 | [Ec]8 |] %11
V:2
 z4 z2 [C,G,C]2 | [F,G,B,]2 [E,G,C]2 [D,F,A,]2 [G,,G,]2 | [C,G,]6 [B,,G,]2 | %3
 [C,G,]2 [B,,G,]2 [A,,E,]2 [D,^F,]2 | [G,,G,]6 [F,G,]2 | [E,G,]2 C,2 F,2 E,2 | D,2 D,2 G,2 F,2 | %7
 E,2 C,2 F,2 G,2 |[M:7/4] C,6 z2 z2 z4 |[M:4/4] [F,A,]8 | [C,G,]8 |] %11

